X: 4322
T: Kiss me Sweetly.   a Reel.
%R: reel
B: Niel Gow & Sons "Complete Repository" v.4 p.32 #2
Z: 2021 John Chambers <jc:trillian.mit.edu>
M: C|
L: 1/8
K: C
% - - - - - - - - - -
% Voice 1 formatted for compactness and proofreading.
V: 1 staves=2
g |\
(a/g/f/e/) cg egce | (a/g/f/e/) cg eddg | (a/g/f/e/) cg egde | c>AGE C/C/C C :| F | (E/F/G) cG AGcG | (E/F/G) ce dDDF |
(E/F/G) cG EG ca | gede c/c/c cG || (E/F/G) cG AGcG | (E/F/G) ce dDDF | (E/F/G) cG EG ca | gede c/c/c c |]
% - - - - - - - - - -
% Voice 2 preserves the book's staff layout.
V: 2 clef=bass middle=d
z |\
c2c'2 c'2c'2 | c2c'2 g2b2 | c'2c'2 c'2g2 | f2g2 c2c :| z |\
[c2C2][c2C2] [c2C2][c2C2] | [c2C2][c2C2] [g2G2][g2G2] |
[c2C2][c2C2] [c2C2][f2F2] | [g2G2][g2G2] [c2C2][c2C2] ||\
[c2C2][c2C2] [c2C2][c2C2] | [c2C2][c2C2] [g2G2][g2G2] |\
[c2C2][c2C2] [c2C2][f2F2] | [g2G2][g2G2] [c2C2][cC] |]


